static/icons/cnlc_metrics.svg

<svg width="150" height="100" viewBox="0 0 150 100" fill="none" xmlns="http://www.w3.org/2000/svg">
<path d="M1.64832 42.4298H12.21V99.3895H1.64832V42.4298Z" fill="#EBECE9"/>
<path d="M8.05859 42.4298H12.271V99.3895H8.05859V42.4298Z" fill="#C1C1C1"/>
<path d="M6.95966 32.3565C10.4325 32.3565 13.2478 29.5412 13.2478 26.0683C13.2478 22.5955 10.4325 19.7802 6.95966 19.7802C3.4868 19.7802 0.671509 22.5955 0.671509 26.0683C0.671509 29.5412 3.4868 32.3565 6.95966 32.3565Z" fill="#9FEFDE"/>
<path d="M32.0512 48.7179C35.5241 48.7179 38.3394 45.9026 38.3394 42.4298C38.3394 38.9569 35.5241 36.1416 32.0512 36.1416C28.5784 36.1416 25.7631 38.9569 25.7631 42.4298C25.7631 45.9026 28.5784 48.7179 32.0512 48.7179Z" fill="#FED19A"/>
<path d="M57.0818 20.4517C60.5546 20.4517 63.3699 17.6364 63.3699 14.1636C63.3699 10.6907 60.5546 7.8754 57.0818 7.8754C53.6089 7.8754 50.7936 10.6907 50.7936 14.1636C50.7936 17.6364 53.6089 20.4517 57.0818 20.4517Z" fill="#9FEFDE"/>
<path d="M82.1734 36.1416C85.6463 36.1416 88.4616 33.3263 88.4616 29.8534C88.4616 26.3806 85.6463 23.5653 82.1734 23.5653C78.7006 23.5653 75.8853 26.3806 75.8853 29.8534C75.8853 33.3263 78.7006 36.1416 82.1734 36.1416Z" fill="#BDDBFF"/>
<path d="M13.2478 26.0683C13.2478 28.2051 12.1489 30.2197 10.3174 31.3797C10.7448 30.525 10.989 29.5482 10.989 28.5714C10.989 25.0915 8.18069 22.2832 4.70083 22.2832C3.47983 22.2832 2.31988 22.6495 1.34308 23.26C2.86933 20.1465 6.65443 18.8644 9.76798 20.3907C11.9047 21.4896 13.2478 23.6874 13.2478 26.0683Z" fill="#24C4A1"/>
<path d="M38.2784 42.4298C38.2784 44.5665 37.1794 46.5201 35.409 47.6801C35.8363 46.8254 36.0806 45.8486 36.0806 44.9328C36.0806 41.4529 33.2722 38.6446 29.7924 38.6446C28.5714 38.6446 27.4114 39.0109 26.3736 39.6825C27.8998 36.5689 31.6849 35.2869 34.7985 36.8131C36.9352 37.851 38.2784 39.9877 38.2784 42.4298Z" fill="#FEBF2D"/>
<path d="M63.37 14.1636C63.37 16.3003 62.271 18.315 60.4395 19.4749C60.8669 18.6202 61.1111 17.6434 61.1111 16.6666C61.1111 13.1868 58.3028 10.3785 54.823 10.3785C53.602 10.3785 52.442 10.7448 51.4652 11.3553C52.9915 8.2417 56.7766 6.95965 59.8901 8.54695C62.0269 9.5848 63.37 11.7826 63.37 14.1636Z" fill="#24C4A1"/>
<path d="M88.4615 29.8534C88.4615 31.9902 87.3626 33.9438 85.5921 35.1037C86.0195 34.249 86.2637 33.3333 86.2637 32.3565C86.2637 28.8766 83.4553 26.0683 79.9755 26.0683C78.7545 26.0683 77.5946 26.4346 76.5567 27.1062C78.083 23.9926 81.8071 22.7106 84.9206 24.1758C87.1184 25.2136 88.4615 27.4114 88.4615 29.8534Z" fill="#69B0EE"/>
<path d="M26.7399 39.6825C26.6178 39.6825 26.4957 39.6215 26.3736 39.5604L11.8437 30.0977C11.5384 29.9145 11.4163 29.4872 11.6605 29.1819C11.8437 28.8767 12.2711 28.7546 12.5763 28.9988L27.1062 38.4615C27.4115 38.6447 27.5336 39.072 27.2894 39.3773C27.1673 39.5604 26.9841 39.6825 26.7399 39.6825Z" fill="#244583"/>
<path d="M76.8619 27.1672C76.7398 27.1672 76.6177 27.1062 76.4956 27.0451L62.0878 18.0097C61.7826 17.8266 61.6605 17.3992 61.8436 17.094C62.0268 16.7887 62.4541 16.6666 62.7594 16.8498L77.1672 25.8852C77.4724 26.0683 77.5945 26.4957 77.4114 26.8009C77.2893 27.0451 77.1061 27.1672 76.8619 27.1672Z" fill="#244583"/>
<path d="M36.2027 38.4005C35.8364 38.4005 35.5311 38.0952 35.5311 37.7289C35.5311 37.5457 35.5921 37.4237 35.7142 37.3015L52.442 18.4981C52.6862 18.1929 53.1135 18.1929 53.4188 18.4371C53.724 18.6813 53.7241 19.1086 53.4799 19.4139L36.7521 38.2173C36.569 38.2784 36.3858 38.4005 36.2027 38.4005Z" fill="#244583"/>
<path d="M6.95968 33.0281C3.11353 33.0281 0 29.9145 0 26.0683C0 22.2222 3.11353 19.1086 6.95968 19.1086C10.8058 19.1086 13.9194 22.2222 13.9194 26.0683C13.9194 29.9145 10.8058 33.0281 6.95968 33.0281ZM6.95968 20.4517C3.84613 20.4517 1.34311 22.9548 1.34311 26.0683C1.34311 29.1819 3.84613 31.685 6.95968 31.685C10.0732 31.685 12.5763 29.1819 12.5763 26.0683C12.5763 23.0158 10.0732 20.4517 6.95968 20.4517Z" fill="#244583"/>
<path d="M57.0818 21.1233C53.2356 21.1233 50.1221 18.0097 50.1221 14.1636C50.1221 10.3174 53.2356 7.20386 57.0818 7.20386C60.9279 7.20386 64.0415 10.3174 64.0415 14.1636C64.0415 18.0097 60.9279 21.1233 57.0818 21.1233ZM57.0818 8.54696C53.9682 8.54696 51.4652 11.05 51.4652 14.1636C51.4652 17.2771 53.9682 19.7802 57.0818 19.7802C60.1953 19.7802 62.6984 17.2771 62.6984 14.1636C62.6984 11.05 60.1953 8.54696 57.0818 8.54696Z" fill="#244583"/>
<path d="M82.1733 36.8131C78.3272 36.8131 75.2136 33.6996 75.2136 29.8534C75.2136 26.0073 78.3272 22.8937 82.1733 22.8937C86.0195 22.8937 89.133 26.0073 89.133 29.8534C89.133 33.6996 86.0195 36.8131 82.1733 36.8131ZM82.1733 24.2368C79.0598 24.2368 76.5567 26.7399 76.5567 29.8534C76.5567 32.967 79.0598 35.47 82.1733 35.47C85.2869 35.47 87.7899 32.967 87.7899 29.8534C87.7899 26.7399 85.2869 24.2368 82.1733 24.2368Z" fill="#22417D"/>
<path d="M12.21 99.9999H1.64838C1.28208 99.9999 0.976807 99.6947 0.976807 99.3284V42.4297C0.976807 42.0634 1.28208 41.7582 1.64838 41.7582H12.21C12.5763 41.7582 12.8816 42.0634 12.8816 42.4297V99.3894C12.8816 99.6947 12.5763 99.9999 12.21 99.9999ZM2.31992 98.6568H11.5385V43.1013H2.31992V98.6568Z" fill="#244583"/>
<path d="M26.6788 55.9218H37.2404V99.3895H26.6788V55.9218Z" fill="#FAF9F8"/>
<path d="M33.0281 55.9218H37.2405V99.3895H33.0281V55.9218Z" fill="#C1C1C1"/>
<path d="M37.2405 100H26.6789C26.3126 100 26.0074 99.6947 26.0074 99.3284V55.8608C26.0074 55.4945 26.3126 55.1892 26.6789 55.1892H37.2405C37.6068 55.1892 37.9121 55.4945 37.9121 55.8608V99.3284C37.9121 99.6947 37.6068 100 37.2405 100ZM27.3505 98.6569H36.569V56.5934H27.3505V98.6569Z" fill="#244583"/>
<path d="M52.1367 32.4175H62.6984V99.3895H52.1367V32.4175Z" fill="#EBECE9"/>
<path d="M58.5469 32.3565H62.7594V99.3284H58.5469V32.3565Z" fill="#C1C1C1"/>
<path d="M62.6984 100H52.1367C51.7704 100 51.4652 99.6947 51.4652 99.3284V32.4176C51.4652 32.0513 51.7704 31.746 52.1367 31.746H62.6984C63.0647 31.746 63.37 32.0513 63.37 32.4176V99.3895C63.37 99.6947 63.0647 100 62.6984 100ZM52.8083 98.6569H62.0269V33.0891H52.8083V98.6569Z" fill="#244583"/>
<path d="M76.9231 43.7118H87.4848V99.3894H76.9231V43.7118Z" fill="#EBECE9"/>
<path d="M83.2722 43.7118H87.4847V99.3894H83.2722V43.7118Z" fill="#C1C1C1"/>
<path d="M87.4847 100H76.923C76.5567 100 76.2515 99.6947 76.2515 99.3284V43.7118C76.2515 43.3455 76.5567 43.0403 76.923 43.0403H87.4847C87.851 43.0403 88.1562 43.3455 88.1562 43.7118V99.3895C88.1562 99.6947 87.851 100 87.4847 100ZM77.5946 98.6569H86.8132V44.3223H77.5946V98.6569Z" fill="#244583"/>
<path d="M32.0513 49.3894C28.2051 49.3894 25.0916 46.2759 25.0916 42.4297C25.0916 38.5836 28.2051 35.47 32.0513 35.47C35.8974 35.47 39.011 38.5836 39.011 42.4297C38.9499 46.2759 35.8364 49.3894 32.0513 49.3894ZM32.0513 36.8131C28.9377 36.8131 26.4347 39.3162 26.4347 42.4297C26.4347 45.5433 28.9377 48.0463 32.0513 48.0463C35.1648 48.0463 37.6679 45.5433 37.6679 42.4297C37.6069 39.3162 35.1038 36.8131 32.0513 36.8131Z" fill="#244583"/>
<path d="M25.641 34.9816C25.2747 34.9816 24.9694 34.6764 24.9694 34.3101C24.9694 34.1269 25.0915 33.8827 25.2136 33.7606C27.1062 32.2954 29.3651 31.4407 31.8071 31.3797C32.1734 31.3797 32.4786 31.6849 32.4786 32.0512C32.4786 32.4175 32.1734 32.7228 31.8071 32.7228C29.7314 32.7838 27.6557 33.5164 26.0684 34.7985C25.9463 34.9206 25.7631 34.9816 25.641 34.9816Z" fill="#244583"/>
<path d="M36.3247 33.6996C36.2026 33.6996 36.1416 33.6996 36.0195 33.6385C35.47 33.3943 34.9817 33.2112 34.3712 33.028C34.0049 32.9059 33.8217 32.5396 33.8827 32.2344C34.0048 31.8681 34.3712 31.6849 34.6764 31.746C35.2869 31.9291 35.9585 32.1123 36.5079 32.4175C36.8742 32.6007 36.9963 32.967 36.8132 33.3333C36.8132 33.5775 36.5689 33.6996 36.3247 33.6996Z" fill="#244583"/>
<path d="M66.7277 83.5775C66.3614 83.5775 66.0562 83.2723 66.0562 82.906V79.6703C66.0562 79.304 66.3614 78.9988 66.7277 78.9988C67.094 78.9988 67.3992 79.304 67.3992 79.6703V82.906C67.3992 83.2723 67.155 83.5775 66.7277 83.5775Z" fill="#244583"/>
<path d="M66.7277 76.8009C66.3614 76.8009 66.0562 76.4957 66.0562 76.1294V58.4249C66.0562 58.0586 66.3614 57.7533 66.7277 57.7533C67.094 57.7533 67.3992 58.0586 67.3992 58.4249V76.1294C67.3992 76.4957 67.155 76.8009 66.7277 76.8009Z" fill="#244583"/>
<path d="M126.557 43.7729L130.159 47.558C131.258 48.6569 131.258 50.4884 130.159 51.6484L121.062 60.7448C119.902 61.8437 118.132 61.8437 116.972 60.7448L113.614 57.265C113.614 57.265 119.475 53.5409 121.184 51.8926C122.772 50.2442 126.557 43.7729 126.557 43.7729Z" fill="#C1C1C1"/>
<path d="M118.987 62.149C118.071 62.149 117.216 61.7827 116.545 61.1111L113.004 57.5702C112.76 57.326 112.821 56.9597 113.004 56.7766C113.248 56.5324 113.553 56.5324 113.797 56.7766L117.338 60.3175C118.254 61.1722 119.719 61.1722 120.635 60.3175L129.731 51.221C130.647 50.3053 130.647 48.8401 129.731 47.9243L125.641 43.8339C125.397 43.6508 125.336 43.2845 125.58 43.0403C125.763 42.7961 126.129 42.735 126.374 42.9792L126.435 43.0403L130.525 47.1307C131.868 48.4738 131.868 50.6716 130.525 52.0147L121.429 61.1111C120.757 61.7827 119.902 62.149 118.987 62.149Z" fill="#244583"/>
<path d="M99.878 60.5006C116.433 60.5006 129.854 47.0801 129.854 30.525C129.854 13.97 116.433 0.549469 99.878 0.549469C83.3229 0.549469 69.9023 13.97 69.9023 30.525C69.9023 47.0801 83.3229 60.5006 99.878 60.5006Z" fill="#EBECE9"/>
<path d="M99.8779 61.0501C83.0281 61.0501 69.3529 47.3748 69.3529 30.525C69.3529 13.6752 83.0281 0 99.8779 0C116.728 0 130.403 13.6752 130.403 30.525C130.403 47.3748 116.728 61.0501 99.8779 61.0501ZM99.8779 1.0989C83.6386 1.0989 70.4518 14.2857 70.4518 30.525C70.4518 46.7643 83.6386 59.9512 99.8779 59.9512C116.117 59.9512 129.304 46.7643 129.304 30.525C129.243 14.2857 116.117 1.0989 99.8779 1.0989Z" fill="#323C6B"/>
<path d="M99.878 0.549424C91.9415 0.549424 84.3101 3.66298 78.6935 9.27958C92.3077 -0.122126 110.989 3.29668 120.391 16.9108C128.633 28.8156 127.167 44.9328 116.911 55.1892C130.525 45.7875 134.005 27.1673 124.603 13.492C118.987 5.37238 109.768 0.488374 99.878 0.549424Z" fill="#C1C1C1"/>
<path d="M121.917 59.8901L138.889 76.862C140.904 78.8767 144.2 78.8767 146.215 76.862C148.23 74.8474 148.23 71.5507 146.215 69.536L129.243 52.5641L121.917 59.8901Z" fill="#9FEFDE"/>
<path d="M142.552 78.9377C141.026 78.9377 139.56 78.3272 138.462 77.2283L121.49 60.2564C121.245 60.0122 121.245 59.6459 121.49 59.4627L128.816 52.1367C129.06 51.8925 129.426 51.8925 129.609 52.1367L146.581 69.0476C148.84 71.3064 148.84 74.9695 146.581 77.1673C145.543 78.3272 144.078 78.9377 142.552 78.9377ZM122.711 59.8901L139.255 76.4347C141.026 78.2662 143.956 78.2662 145.788 76.4957C147.619 74.7253 147.619 71.7949 145.849 69.9633L145.788 69.9023L129.243 53.3577L122.711 59.8901Z" fill="#244583"/>
<path d="M140.049 73.6264C139.744 73.9316 139.316 73.9316 139.011 73.6264L133.944 68.6203C133.639 68.315 133.639 67.8877 133.944 67.5824C134.249 67.2772 134.676 67.2772 134.982 67.5824L140.049 72.5885C140.293 72.8938 140.354 73.3211 140.049 73.6264Z" fill="white"/>
<path d="M133.211 65.7509C133.517 66.0562 133.517 66.4835 133.211 66.7888C133.089 66.9109 132.906 66.9719 132.662 67.033C132.479 67.033 132.295 66.9719 132.112 66.7888L130.403 65.0794C130.098 64.7741 130.159 64.2857 130.464 64.0415C130.769 63.7973 131.197 63.7973 131.502 64.0415L133.211 65.7509Z" fill="white"/>
<path d="M99.8779 61.0501C83.0281 61.0501 69.3529 47.3748 69.3529 30.525C69.3529 13.6752 83.0281 0 99.8779 0C116.728 0 130.403 13.6752 130.403 30.525C130.403 47.3748 116.728 61.0501 99.8779 61.0501ZM99.8779 1.0989C83.6386 1.0989 70.4518 14.2857 70.4518 30.525C70.4518 46.7643 83.6386 59.9512 99.8779 59.9512C116.117 59.9512 129.304 46.7643 129.304 30.525C129.243 14.2857 116.117 1.0989 99.8779 1.0989Z" fill="#244583"/>
<path d="M134.371 77.7167C134.249 77.7167 134.066 77.6557 133.944 77.5336L131.99 75.58C131.746 75.3358 131.746 74.9695 131.99 74.7863C132.234 74.5421 132.601 74.5421 132.784 74.7863L134.737 76.7399C134.982 76.9841 134.982 77.3504 134.737 77.5336C134.676 77.6557 134.493 77.7167 134.371 77.7167Z" fill="#244583"/>
<path d="M142.552 82.3565C140.11 82.3565 137.79 81.3797 136.02 79.6703C135.775 79.4261 135.775 79.0598 136.02 78.8767C136.264 78.6935 136.63 78.6325 136.813 78.8767C139.927 82.0513 145.055 82.0513 148.168 78.8767C148.413 78.6325 148.779 78.6325 148.962 78.8767C149.145 79.1209 149.206 79.4872 148.962 79.6703C147.314 81.3797 144.994 82.3565 142.552 82.3565Z" fill="#244583"/>
<path d="M121.184 5.37242C121.062 5.37242 120.94 5.31137 120.818 5.25032C120.024 4.57877 119.353 4.09037 118.742 3.60197C118.498 3.41882 118.376 3.05252 118.559 2.80832C118.742 2.56412 119.109 2.44202 119.353 2.62517C119.353 2.62517 119.353 2.62517 119.414 2.62517C120.086 3.11357 120.757 3.60197 121.612 4.27352C121.856 4.45667 121.917 4.82297 121.673 5.06717C121.551 5.31137 121.368 5.37242 121.184 5.37242Z" fill="#244583"/>
<path d="M132.357 23.2601C132.112 23.2601 131.868 23.0769 131.807 22.8327C130.464 17.2161 127.595 12.0269 123.626 7.87546C123.382 7.63126 123.443 7.26496 123.626 7.08181C123.871 6.83761 124.237 6.89866 124.42 7.08181C128.571 11.4164 131.502 16.7277 132.906 22.5885C132.967 22.8938 132.784 23.199 132.479 23.2601C132.479 23.2601 132.418 23.2601 132.357 23.2601Z" fill="#244583"/>
</svg>

<svg xmlns="http://www.w3.org/2000/svg" xmlns:xlink="http://www.w3.org/1999/xlink" width="150" height="100" fill="none" xmlns:v="https://vecta.io/nano"><style><![CDATA[.B{fill:#244583}.C{fill:#c1c1c1}.D{fill:#ebece9}.E{fill:#9fefde}]]></style><path d="M1.648 42.43H12.21v56.96H1.648V42.43z" class="D"/><path d="M8.059 42.43h4.212v56.96H8.059V42.43z" class="C"/><path d="M6.96 32.356a6.29 6.29 0 0 0 6.288-6.288A6.29 6.29 0 0 0 6.96 19.78a6.29 6.29 0 0 0-6.288 6.288 6.29 6.29 0 0 0 6.288 6.288z" class="E"/><use xlink:href="#B" fill="#fed19a"/><use xlink:href="#B" x="25.031" y="-28.266" class="E"/><use xlink:href="#B" x="50.122" y="-12.576" fill="#bddbff"/><path d="M13.248 26.068a6.3 6.3 0 0 1-2.93 5.311c.427-.855.672-1.831.672-2.808a6.28 6.28 0 0 0-6.288-6.288 6.35 6.35 0 0 0-3.358.977c1.526-3.114 5.311-4.396 8.425-2.869a6.4 6.4 0 0 1 3.48 5.678z" fill="#24c4a1"/><path d="M38.278 42.43c0 2.137-1.099 4.09-2.869 5.25.427-.855.672-1.832.672-2.747a6.28 6.28 0 0 0-6.288-6.288c-1.221 0-2.381.366-3.419 1.038 1.526-3.114 5.311-4.396 8.425-2.869 2.137 1.038 3.48 3.175 3.48 5.617z" fill="#febf2d"/><path d="M63.37 14.164a6.3 6.3 0 0 1-2.93 5.311c.427-.855.672-1.832.672-2.808a6.28 6.28 0 0 0-6.288-6.288 6.35 6.35 0 0 0-3.358.977 6.23 6.23 0 0 1 8.425-2.808c2.137 1.038 3.48 3.236 3.48 5.617z" fill="#24c4a1"/><path d="M88.462 29.853c0 2.137-1.099 4.09-2.869 5.25.427-.855.672-1.77.672-2.747a6.28 6.28 0 0 0-6.288-6.288c-1.221 0-2.381.366-3.419 1.038 1.526-3.114 5.25-4.396 8.364-2.93 2.198 1.038 3.541 3.236 3.541 5.678z" fill="#69b0ee"/><g class="B"><path d="M26.74 39.683c-.122 0-.244-.061-.366-.122l-14.53-9.463c-.305-.183-.427-.61-.183-.916.183-.305.611-.427.916-.183l14.53 9.463c.305.183.427.611.183.916a.64.64 0 0 1-.55.305zm50.122-12.516c-.122 0-.244-.061-.366-.122L62.088 18.01c-.305-.183-.427-.61-.244-.916a.69.69 0 0 1 .916-.244l14.408 9.035c.305.183.427.61.244.916-.122.244-.305.366-.549.366z"/><path d="M36.203 38.401a.68.68 0 0 1-.672-.672c0-.183.061-.305.183-.427l16.728-18.803c.244-.305.672-.305.977-.061s.305.671.061.977L36.752 38.217c-.183.061-.366.183-.549.183zM6.96 33.028a6.96 6.96 0 0 1 0-13.92 6.96 6.96 0 0 1 0 13.92zm0-12.576a5.6 5.6 0 0 0-5.617 5.617 5.6 5.6 0 0 0 5.617 5.617 5.6 5.6 0 0 0 5.617-5.617c0-3.053-2.503-5.617-5.617-5.617z"/><path d="M57.082 21.123a6.96 6.96 0 0 1 0-13.919 6.96 6.96 0 0 1 0 13.919zm0-12.576a5.6 5.6 0 0 0-5.617 5.617 5.6 5.6 0 1 0 11.233 0 5.6 5.6 0 0 0-5.617-5.617z"/></g><path d="M82.173 36.813a6.96 6.96 0 0 1 0-13.919 6.96 6.96 0 0 1 0 13.919zm0-12.576a5.6 5.6 0 1 0 0 11.233 5.6 5.6 0 1 0 0-11.233z" fill="#22417d"/><path d="M12.21 100H1.648a.68.68 0 0 1-.672-.671V42.43a.68.68 0 0 1 .672-.671H12.21a.68.68 0 0 1 .672.671v56.96c0 .305-.305.611-.672.611zm-9.89-1.343h9.219V43.101H2.32v55.556z" class="B"/><path d="M26.679 55.922H37.24V99.39H26.679V55.922z" fill="#faf9f8"/><path d="M33.028 55.922h4.212V99.39h-4.212V55.922z" class="C"/><path d="M37.241 100H26.679a.68.68 0 0 1-.671-.672V55.861a.68.68 0 0 1 .671-.672h10.562a.68.68 0 0 1 .672.672v43.468a.68.68 0 0 1-.672.672zm-9.89-1.343h9.219V56.593h-9.219v42.063z" class="B"/><path d="M52.137 32.417h10.562V99.39H52.137V32.417z" class="D"/><path d="M58.547 32.356h4.212v66.972h-4.212V32.356z" class="C"/><path d="M62.698 100H52.137a.68.68 0 0 1-.671-.672V32.418a.68.68 0 0 1 .671-.672h10.562a.68.68 0 0 1 .672.672V99.39c0 .305-.305.611-.672.611zm-9.89-1.343h9.219V33.089h-9.219v65.568z" class="B"/><path d="M76.923 43.712h10.562v55.678H76.923V43.712z" class="D"/><path d="M83.272 43.712h4.213v55.678h-4.213V43.712z" class="C"/><path d="M87.485 100H76.923a.68.68 0 0 1-.672-.672V43.712a.68.68 0 0 1 .672-.671h10.562a.68.68 0 0 1 .671.671V99.39c0 .305-.305.611-.671.611zm-9.89-1.343h9.219V44.322h-9.219v54.335zM32.051 49.389a6.96 6.96 0 0 1 0-13.919 6.96 6.96 0 0 1 6.96 6.96c-.061 3.846-3.175 6.96-6.96 6.96zm0-12.576a5.617 5.617 0 1 0 0 11.233 5.6 5.6 0 0 0 5.617-5.617c-.061-3.113-2.564-5.617-5.617-5.617zm-6.41-1.831a.68.68 0 0 1-.672-.672.91.91 0 0 1 .244-.55c1.893-1.465 4.152-2.32 6.593-2.381a.68.68 0 0 1 .672.672.68.68 0 0 1-.672.672c-2.076.061-4.151.794-5.739 2.076a.66.66 0 0 1-.427.183zM36.325 33.7c-.122 0-.183 0-.305-.061a13.15 13.15 0 0 0-1.648-.611c-.366-.122-.55-.488-.489-.794.122-.366.489-.55.794-.488.611.183 1.282.366 1.831.671a.64.64 0 0 1 .305.916c0 .244-.244.366-.489.366zm30.403 49.878a.68.68 0 0 1-.671-.671V79.67a.68.68 0 0 1 .671-.671.68.68 0 0 1 .671.671v3.236c0 .366-.244.671-.671.671zm0-6.777a.68.68 0 0 1-.671-.671V58.425a.68.68 0 0 1 .671-.672.68.68 0 0 1 .671.672V76.13c0 .366-.244.671-.671.671z" class="B"/><path d="M126.557 43.773l3.602 3.785c1.099 1.099 1.099 2.93 0 4.09l-9.097 9.096a2.95 2.95 0 0 1-4.09 0l-3.358-3.48s5.861-3.724 7.57-5.372c1.588-1.648 5.373-8.12 5.373-8.12z" class="C"/><path d="M118.987 62.149c-.916 0-1.771-.366-2.442-1.038l-3.541-3.541c-.244-.244-.183-.611 0-.794.244-.244.549-.244.793 0l3.541 3.541a2.44 2.44 0 0 0 3.297 0l9.096-9.097a2.32 2.32 0 0 0 0-3.297l-4.09-4.09c-.244-.183-.305-.549-.061-.794.183-.244.549-.305.794-.061l.061.061 4.09 4.09c1.343 1.343 1.343 3.541 0 4.884l-9.096 9.096c-.672.672-1.527 1.038-2.442 1.038z" class="B"/><path d="M99.878 60.501c16.555 0 29.976-13.42 29.976-29.976S116.433.549 99.878.549 69.902 13.97 69.902 30.525s13.421 29.976 29.976 29.976z" class="D"/><use xlink:href="#C" fill="#323c6b"/><path d="M99.878.549c-7.936 0-15.568 3.114-21.184 8.73 13.614-9.402 32.296-5.983 41.698 7.631 8.242 11.905 6.776 28.022-3.48 38.278 13.614-9.402 17.094-28.022 7.692-41.697C118.987 5.372 109.768.488 99.878.549z" class="C"/><path d="M121.917 59.89l16.972 16.972a5.2 5.2 0 0 0 7.326 0c2.015-2.015 2.015-5.311 0-7.326l-16.972-16.972-7.326 7.326z" class="E"/><path d="M142.552 78.938c-1.526 0-2.992-.611-4.09-1.709L121.49 60.256c-.245-.244-.245-.611 0-.794l7.326-7.326c.244-.244.61-.244.793 0l16.972 16.911c2.259 2.259 2.259 5.922 0 8.12-1.038 1.16-2.503 1.77-4.029 1.77zM122.711 59.89l16.544 16.545c1.771 1.831 4.701 1.831 6.533.061s1.831-4.701.061-6.532l-.061-.061-16.545-16.545-6.532 6.532z" class="B"/><path d="M140.049 73.626a.7.7 0 0 1-1.038 0l-5.067-5.006a.7.7 0 0 1 0-1.038.7.7 0 0 1 1.038 0l5.067 5.006c.244.305.305.733 0 1.038zm-6.838-7.875a.7.7 0 0 1 0 1.038c-.122.122-.305.183-.549.244-.183 0-.367-.061-.55-.244l-1.709-1.709c-.305-.305-.244-.794.061-1.038s.733-.244 1.038 0l1.709 1.709z" fill="#fff"/><g class="B"><use xlink:href="#C"/><path d="M134.371 77.717a.66.66 0 0 1-.427-.183l-1.954-1.954c-.244-.244-.244-.611 0-.794.244-.244.611-.244.794 0l1.953 1.954c.245.244.245.61 0 .794-.061.122-.244.183-.366.183zm8.181 4.64c-2.442 0-4.762-.977-6.532-2.686-.245-.244-.245-.611 0-.794s.61-.244.793 0a7.96 7.96 0 0 0 11.355 0c.245-.244.611-.244.794 0s.244.611 0 .794c-1.648 1.709-3.968 2.686-6.41 2.686zM121.184 5.372c-.122 0-.244-.061-.366-.122l-2.076-1.648c-.244-.183-.366-.549-.183-.794s.55-.366.794-.183h.061l2.198 1.648c.244.183.305.549.061.794a.5.5 0 0 1-.489.305zm11.173 17.888c-.245 0-.489-.183-.55-.427-1.343-5.617-4.212-10.806-8.181-14.957-.244-.244-.183-.61 0-.794.245-.244.611-.183.794 0 4.151 4.335 7.082 9.646 8.486 15.507.061.305-.122.611-.427.672h-.122z"/></g><defs ><path id="B" d="M32.051 48.718a6.29 6.29 0 0 0 6.288-6.288 6.29 6.29 0 0 0-6.288-6.288 6.29 6.29 0 0 0-6.288 6.288 6.29 6.29 0 0 0 6.288 6.288z"/><path id="C" d="M99.878 61.05c-16.85 0-30.525-13.675-30.525-30.525S83.028 0 99.878 0s30.525 13.675 30.525 30.525S116.728 61.05 99.878 61.05zm0-59.951c-16.239 0-29.426 13.187-29.426 29.426s13.187 29.426 29.426 29.426 29.426-13.187 29.426-29.426c-.061-16.239-13.187-29.426-29.426-29.426z"/></defs></svg>
